X: 22491
T: Lady Dillon
R: jig
M: 6/8
K: Dmajor
|:ABA AFD|d3 c2B|ABA AFD|G3 F2E|
FGA ABA|g3 f2e|efe ecA|d3 d3:|
|:fga aba|cde efg|fed cde|A3 A2G|
FDA FDA|BGd BGg|fed c/d/ec|d3 d3:|

